X:512
T:Bonaparte's Retreat 2
D:Aly Bain/Phil Cunningham, The Ruby
Z:Nigel Gatherer
Q:170
M:2/4
L:1/16
K:D
F4 F>EF>G | A2F2 E2D2 | E4    E>DE>F | G2F2 E2D2 | 
F4 F>EF>G | A2F2 E2D2 | E2F>G F2E2       | D4- D4- | D4- D4 :|
d4 f3e | d>ed>B A2B>c | d3B A2F2 | E2D2 F3E | D4- D4- | D4- D4 :|
F4 F>EF>G | A2F2 E2D2 | E4    E>DE>F | G2F2 E2D2 | 
F4 F>EF>G | A2F2 E2D2 | E2F>G F2E2       | D4- D4- | D4- D4 :|
d4 f3e | d>ed>B A2B>c | d3B A2F2 |
M:1/4
E2D2 |
M:2/4
B4- B4- | B4- B4 |
d4 f3e | d>ed>B A2B>c | d3B A2F2 | E2D2 F3E | D4- D4- | D4- D4 :|
<end>
<start>
